X:1
T:Title
%%score { ( 1 4 ) | ( 2 3 5 6 ) }
L:1/8
M:6/8
K:D
V:1 treble nm="Grand Piano"
V:4 treble 
V:2 bass 
V:3 bass 
V:5 bass 
V:6 bass 
V:1
 z3 z2[Q:1/4=95] [FA] | [FA][GB][FA] [DF]2 [Fd] | ded B2 [FA] | [FA][GB][FA] F2 D | %4
[M:5/8] F2 F E2 |[M:1/8] [FA] |[M:3/4] [FA][GB] [FA] [DF]2 [Fd] | de d B2 [FA] | %8
 [FA]B [DFA] [A,DF]2 [A,D] | [DF]2[K:bass] [G,CE] [F,D]3 |[M:1/8][K:treble] A |[M:3/4] A4 z2 | %12
 A4 z2 | [Gc]2 [Gc][Gc] [GB][Gc] | [Ge][Gd] [DGB] [DFA]3 |[M:1/8] A |[M:3/4] A4 z2 | A4 z2 | %18
 [Gc]2 [Gc][Gc] [GB][Gc] | d6- |[M:5/8] d-d- d3 |] %21
V:2
 z3 z2 [D,D] | [D,D]2 [D,D] [D,A,]2 [D,A,] | [G,B,G]2 [G,B,G] [G,DG]2[K:bass] [D,D] | %3
 [D,D]2 [D,D] [D,A,D]2 [F,A,] |[M:5/8] [A,D]2 [A,D] [A,C]2 |[M:1/8] [D,D] | %6
[M:3/4] [D,D]2 [D,D] [D,A,]2 [D,A,] | [G,B,G]2 [G,B,G] [G,DG]2[K:bass] [D,D] | [D,D]2 z2 z2 | %9
 A,2 A,, D,3 |[M:1/8][K:treble] F |[M:3/4] z6[K:bass] | F4 z2 | %13
 [A,,A,]2 [A,,A,][A,,A,] [A,,A,][A,,A,] | [A,,A,][A,,A,] A,, D,3 |[M:1/8][K:treble] F | %16
[M:3/4] z6[K:bass] | F4 z2 | [A,,A,]2 [A,,A,][A,,A,] [A,,A,][A,,A,] | %19
 [D,A,]2 [D,A,][D,B,] [D,B,][D,B,] |[M:5/8] [D,A,]-[D,A,]- [D,A,]3 |] %21
V:3
 x6 | x6 | x5[K:bass] x | x6 |[M:5/8] x5 |[M:1/8] x |[M:3/4] x6 | x5[K:bass] x | z G D, D,2 F, | %9
 x6 |[M:1/8][K:treble] x |[M:3/4] F4[K:bass] D2- | D2 z2 z2 | x6 | x6 |[M:1/8][K:treble] x | %16
[M:3/4] F4[K:bass] D2- | D2 z2 z2 | x6 | x6 |[M:5/8] x5 |] %21
V:4
 x6 | x6 | x6 | x6 |[M:5/8] x5 |[M:1/8] x |[M:3/4] x6 | x6 | x6 | x2[K:bass] x4 | %10
[M:1/8][K:treble] x |[M:3/4] z2 DD FB | z2 DD F[Fd] | x6 | x6 |[M:1/8] x |[M:3/4] z2 DD FB | %17
 z2 DD F[Fd] | x6 | F2 FG GG |[M:5/8] F-F- F3 |] %21
V:5
 x6 | x6 | x5[K:bass] x | x6 |[M:5/8] x5 |[M:1/8] x |[M:3/4] x6 | x5[K:bass] x | x6 | x6 | %10
[M:1/8][K:treble] x |[M:3/4] z2[K:bass] .D,2 z G | z2 .D,2 D[D,A,] | x6 | x6 |[M:1/8][K:treble] x | %16
[M:3/4] z2[K:bass] .D,2 z G | z2 .D,2 D[D,A,] | x6 | x6 |[M:5/8] x5 |] %21
V:6
 x6 | x6 | x5[K:bass] x | x6 |[M:5/8] x5 |[M:1/8] x |[M:3/4] x6 | x5[K:bass] x | x6 | x6 | %10
[M:1/8][K:treble] x |[M:3/4] z2[K:bass] z D,3- | D,2 z .D,3 | x6 | x6 |[M:1/8][K:treble] x | %16
[M:3/4] z2[K:bass] z D,3- | D,2 z .D,3 | x6 | x6 |[M:5/8] x5 |] %21

